svg/microwave_off.svg

<svg xmlns="http://www.w3.org/2000/svg" viewBox="0 0 24 24"><path d="M22.11 21.46 2.39 1.73 1.11 3l2.15 2.15C2.5 5.44 2 6.16 2 7v10a2 2 0 0 0 2 2h13.11l3.73 3.73zM4 17V7h1.11l10 10zM16 7v5.8l5.5 5.51c.31-.36.5-.81.5-1.31V7a2 2 0 0 0-2-2H8.2l2 2zm3 0c.55 0 1 .45 1 1s-.45 1-1 1-1-.45-1-1 .45-1 1-1m0 4c.55 0 1 .45 1 1s-.45 1-1 1-1-.45-1-1 .45-1 1-1m-6-1.2V9h2v2.8z"/></svg>

<?xml version="1.0" encoding="UTF-8"?><!DOCTYPE svg PUBLIC "-//W3C//DTD SVG 1.1//EN" "http://www.w3.org/Graphics/SVG/1.1/DTD/svg11.dtd"><svg xmlns="http://www.w3.org/2000/svg" xmlns:xlink="http://www.w3.org/1999/xlink" version="1.1" id="mdi-microwave-off" width="24" height="24" viewBox="0 0 24 24"><path d="M22.11 21.46L2.39 1.73L1.11 3L3.26 5.15C2.5 5.44 2 6.16 2 7V17C2 18.11 2.9 19 4 19H17.11L20.84 22.73L22.11 21.46M4 17V7H5.11L15.11 17H4M16 7V12.8L21.5 18.31C21.81 17.95 22 17.5 22 17V7C22 5.9 21.11 5 20 5H8.2L10.2 7H16M19 7C19.55 7 20 7.45 20 8S19.55 9 19 9 18 8.55 18 8 18.45 7 19 7M19 11C19.55 11 20 11.45 20 12S19.55 13 19 13 18 12.55 18 12 18.45 11 19 11M13 9.8V9H15V11.8L13 9.8Z" /></svg>
